src/16/goal-16.svg

<?xml version="1.0" encoding="iso-8859-1"?>
<!-- Generator: Adobe Illustrator 19.1.0, SVG Export Plug-In . SVG Version: 6.00 Build 0)  -->
<!DOCTYPE svg PUBLIC "-//W3C//DTD SVG 1.1 Tiny//EN" "http://www.w3.org/Graphics/SVG/1.1/DTD/svg11-tiny.dtd">
<svg version="1.1" baseProfile="tiny" xmlns="http://www.w3.org/2000/svg" xmlns:xlink="http://www.w3.org/1999/xlink" x="0px"
	 y="0px" viewBox="0 0 16 16" xml:space="preserve">
<g id="Layer_1">
	<path d="M13.5,11H5.54c-0.276,0-0.5-0.224-0.5-0.5c0-0.574,0.463-1.088,1.028-1.5H3.5C3.224,9,3,8.776,3,8.5v-7
		C3,1.224,3.224,1,3.5,1h5C8.776,1,9,1.224,9,1.5V2h4.5C13.776,2,14,2.224,14,2.5v8C14,10.776,13.776,11,13.5,11z M6.414,10H13V3
		H8.5C8.224,3,8,2.776,8,2.5V2H4v6h4.061c0.24,0,0.446,0.17,0.491,0.406c0.045,0.236-0.083,0.47-0.306,0.559
		C7.513,9.256,6.821,9.658,6.414,10z"/>
	<path d="M8.5,9C8.224,9,8,8.776,8,8.5v-7C8,1.224,8.224,1,8.5,1S9,1.224,9,1.5v7C9,8.776,8.776,9,8.5,9z"/>
	<path d="M3.5,15.5C3.224,15.5,3,15.276,3,15V1c0-0.276,0.224-0.5,0.5-0.5S4,0.724,4,1v14C4,15.276,3.776,15.5,3.5,15.5z"/>
	<path d="M5.5,11C5.224,11,5,10.776,5,10.5V9c0-0.276,0.224-0.5,0.5-0.5S6,8.724,6,9v1.5C6,10.776,5.776,11,5.5,11z"/>
</g>
<g id="Layer_2">
</g>
<g id="Layer_3">
</g>
</svg>

<svg baseProfile="tiny" xmlns="http://www.w3.org/2000/svg" viewBox="0 0 16 16"><path d="M13.5 11H5.54a.5.5 0 0 1-.5-.5c0-.574.463-1.088 1.028-1.5H3.5a.5.5 0 0 1-.5-.5v-7a.5.5 0 0 1 .5-.5h5a.5.5 0 0 1 .5.5V2h4.5a.5.5 0 0 1 .5.5v8a.5.5 0 0 1-.5.5zm-7.086-1H13V3H8.5a.5.5 0 0 1-.5-.5V2H4v6h4.061a.5.5 0 0 1 .185.965c-.733.291-1.425.693-1.832 1.035z"/><path d="M8.5 9a.5.5 0 0 1-.5-.5v-7a.5.5 0 0 1 1 0v7a.5.5 0 0 1-.5.5zM3.5 15.5A.5.5 0 0 1 3 15V1a.5.5 0 0 1 1 0v14a.5.5 0 0 1-.5.5zM5.5 11a.5.5 0 0 1-.5-.5V9a.5.5 0 0 1 1 0v1.5a.5.5 0 0 1-.5.5z"/></svg>
